X: 305762
M: 2/4
L: 1/16
K: Bb
b2f2a2e2 |b2=ef gfed | c2Bc dcAF | B4 "^D.C."z2 |]
f2 |\
=efgf d2b2 | f2d'2 c'2b2 | a2 e'4 c'a | babc' f'2[f2d2] |\
=efgf d2b2 | f2 f'4 c'b | a2 e'4 c'a | b4 "^D.C."z2 |]
g2^f2g2=c2 | c=Bcd e2=e2 | f2=e2f2 Ac | B4 "^D.C."z2 |]


